24x24/actions/add.svg

<svg xmlns="http://www.w3.org/2000/svg" viewBox="0 0 24 24"><path style="fill:currentColor;fill-opacity:1;stroke:none;color:#5d656b" d="M11 5v7H4v1h7v7h1v-7h7v-1h-7V5h-1z"/></svg>

<svg xmlns="http://www.w3.org/2000/svg" viewBox="0 0 24 24">
  <defs id="defs3051">
    <style type="text/css" id="current-color-scheme">
      .ColorScheme-Text {
        color:#5d656b;
      }
      </style>
  </defs>
 <path style="fill:currentColor;fill-opacity:1;stroke:none" 
     d="M 11 5 L 11 12 L 4 12 L 4 13 L 11 13 L 11 20 L 12 20 L 12 13 L 19 13 L 19 12 L 12 12 L 12 5 L 11 5 z "
     class="ColorScheme-Text"
     />
</svg>
